X: 38095
T: Split Rock
R: jig
M: 6/8
K: Bminor
ABc BAF|c3 BAF|E2B BAF|ABF AFE|
F2B BAF|ABc BAF|~c3 BAE|1 F2B B3:|2 F2B B2B||
|:cBc e2f|fec eBA|BcB ~B2A|BcB ~B2B|
cBc e2f|fec eBA|~c3 BAE|1 F2B B2B:|2 F2B B3||

